!!!id: EG046
!!!page: 63
!!!COM: Anonymous
!!!LYR: Anonymous
!!!PTL@@FR: Chansons Populaires du Canada
!!!OTL@@FR: Genticorum
!!!PUB: G. E. Desbarats
!!!YEM:
!!!PDT: 1865
!!!SMA:
!!!OMD:
!!!AGN-Laforte:
!!!AGN-type:
!!!AGN-rime:
**kern
*clefG2
*k[b-,e-]
*g:
*M2/4
*
*
=1
8b-/
16a
16b-/
8g
8dd
=2
8dd
8cc
4dd
=3
8b-/
8b-/
8g
8dd
!!LO:PB:g=original
=4
8dd
8cc
4dd
=5
8dd
16dd
16ee
8ff
8dd
=6
8cc
8cc
8a
16a
16b-/
!!LO:PB:g=original
=7
8cc
16cc
16b-/
8a
16a
16b-/
=8
8cc
8cc
8a
16a
16b-/
!!LO:PB:g=original
=9
8cc
8cc
8a
16a
16b-/
=10
8cc
8cc
8a
8r
=11
8b-/
16a
16b-/
8g
8dd
!!LO:PB:g=original
=12
8.dd
16cc
8.dd
16g
=13
8g
8a
8b-/
16a
16b-/
=14
8cc
16cc
16b-/
8a
8r
!!LO:PB:g=original
=15
8b-/
16a
16b-/
8g
8dd
=16
8dd
8ff
8dd
16cc/
16b-/
=17
8a
16b-/
16a
4g
==||
*
*
==|
!!!RNB: At second eighth notes of mm.8, 9, & 10; there are upper voice cue notes of C & Bb occuring simultaneously with the C
*-
